brandFactory_export/1.Light/Directorio_1Light.svg

<?xml version="1.0" encoding="UTF-8"?>
<svg width="24px" height="24px" viewBox="0 0 24 24" version="1.1" xmlns="http://www.w3.org/2000/svg" xmlns:xlink="http://www.w3.org/1999/xlink">
    <title>1.Light/Directorio_1Light</title>
    <g id="Symbols" stroke="none" stroke-width="1" fill="none" fill-rule="evenodd">
        <g id="1.Light/Directorio_1Light" fill="#5CB615" fill-rule="nonzero">
            <path d="M15.4470588,15.0722689 C17.5445378,15.0722689 19.2621849,15.7042017 20.4117647,16.897479 C21.4672269,17.9932773 22.0218487,19.5193277 22.0218487,21.3109244 L22.0218487,23.2773109 C22.0218487,23.4621849 21.8705882,23.6134454 21.6857143,23.6134454 L1.36638655,23.6134454 C1.18151261,23.6134454 1.0302521,23.4621849 1.0302521,23.2773109 L1.0302521,21.3109244 C1.0302521,19.5193277 1.58823529,17.9932773 2.64033613,16.897479 C3.78991597,15.7042017 5.50420168,15.0722689 7.60504202,15.0722689 L15.4470588,15.0722689 Z M15.4470588,15.7478992 L7.60504202,15.7478992 C5.66554622,15.7478992 4.15966387,16.292437 3.12436975,17.3647059 C2.19327731,18.3327731 1.70252101,19.697479 1.70252101,21.3109244 L1.70252101,22.9411765 L21.3495798,22.9411765 L21.3495798,21.3109244 C21.3495798,19.697479 20.8588235,18.3327731 19.9277311,17.3647059 C18.892437,16.292437 17.3865546,15.7478992 15.4470588,15.7478992 Z M11.4941176,3.19744231e-13 C13.7966387,3.19744231e-13 15.5815126,0.598319328 16.8016807,1.77478992 C18.0689076,2.99495798 18.7109244,4.82689076 18.7109244,7.22016807 L18.7109244,7.22689076 L18.7008403,7.88235294 C18.7008403,8.48067227 18.5294118,8.95462185 18.1966387,9.28403361 C17.8638655,9.61344538 17.4033613,9.77478992 16.8218487,9.77478992 L16.3836108,9.77553524 C16.1536512,10.3367649 15.8343648,10.8158972 15.4268908,11.210084 C14.5327731,12.0705882 13.2285714,12.507563 11.5478992,12.507563 C9.87058824,12.507563 8.56302521,12.0705882 7.66890756,11.2067227 C6.74117647,10.312605 6.27058824,8.97142857 6.27058824,7.22689076 C6.27058824,5.48235294 6.74117647,4.14117647 7.66890756,3.24705882 C8.56638655,2.38655462 9.87058824,1.94957983 11.5478992,1.94957983 C13.2252101,1.94957983 14.5327731,2.38655462 15.4268908,3.25042017 C16.3546218,4.14789916 16.8252101,5.48571429 16.8252101,7.2302521 C16.8252101,7.9185759 16.7519503,8.54358229 16.6062565,9.10320658 L16.8218487,9.10252101 C17.2184874,9.10252101 17.5210084,9.00168067 17.7226891,8.80336134 C17.9243697,8.60504202 18.0285714,8.28907563 18.0285714,7.87563025 L18.0285714,7.86890756 L18.0386555,7.21344538 C18.0386555,2.87394958 15.8369748,0.672268908 11.4941176,0.672268908 C7.59831933,0.672268908 5.42016807,2.45378151 5.01680672,5.96302521 C4.99327731,6.14789916 4.82521008,6.2789916 4.64369748,6.25546218 C4.46218487,6.23193277 4.33109244,6.07058824 4.3512605,5.88571429 C4.57310924,3.92941176 5.31932773,2.4302521 6.56638655,1.43865546 C7.76638655,0.484033613 9.42352941,3.19744231e-13 11.4941176,3.19744231e-13 Z M14.876768,9.7749625 C14.8431344,9.87330267 14.7928613,9.95503786 14.7277311,10.0201681 C14.589916,10.1579832 14.3882353,10.2252101 14.1394958,10.2252101 C13.8907563,10.2252101 13.6890756,10.1579832 13.5512605,10.0201681 C13.4235294,9.89243697 13.3529412,9.70084034 13.3529412,9.44537815 C13.3529412,8.91092437 13.6655462,8.66218487 14.1428571,8.66218487 C14.5025093,8.66218487 14.76674,8.80340846 14.8737158,9.10167355 L15.908689,9.1037134 C16.0713172,8.55880043 16.1529412,7.9332805 16.1529412,7.2302521 C16.1529412,5.67394958 15.7495798,4.49747899 14.9596639,3.73445378 C14.1966387,2.99495798 13.0470588,2.62184874 11.5478992,2.62184874 C10.0487395,2.62184874 8.90252101,2.99495798 8.13613445,3.73445378 C7.34285714,4.49747899 6.94285714,5.67394958 6.94285714,7.2302521 C6.94285714,8.78655462 7.34621849,9.96302521 8.13613445,10.7260504 C8.90252101,11.4655462 10.0487395,11.8386555 11.5478992,11.8386555 C13.0470588,11.8386555 14.1932773,11.4655462 14.9596639,10.7260504 C15.2369062,10.4593809 15.4661124,10.1422119 15.6469955,9.77597821 Z" id="Directorio_1Light"></path>
        </g>
    </g>
</svg>

<svg width="24" height="24" viewBox="0 0 24 24" xmlns="http://www.w3.org/2000/svg"><path d="M15.447 15.072c2.098 0 3.815.632 4.965 1.825 1.055 1.096 1.61 2.622 1.61 4.414v1.966a.337.337 0 01-.336.336H1.366a.337.337 0 01-.336-.336v-1.966c0-1.792.558-3.318 1.61-4.414 1.15-1.193 2.864-1.825 4.965-1.825h7.842zm0 .676H7.605c-1.94 0-3.445.544-4.48 1.617-.932.968-1.422 2.332-1.422 3.946v1.63H21.35v-1.63c0-1.614-.491-2.978-1.422-3.946-1.036-1.073-2.541-1.617-4.48-1.617zM11.494 0c2.303 0 4.088.598 5.308 1.775 1.267 1.22 1.909 3.052 1.909 5.445v.007l-.01.655c0 .599-.172 1.073-.504 1.402-.333.33-.794.49-1.375.49l-.438.002c-.23.56-.55 1.04-.957 1.434-.894.86-2.198 1.298-3.88 1.298-1.676 0-2.984-.437-3.878-1.301-.928-.894-1.398-2.236-1.398-3.98 0-1.745.47-3.086 1.398-3.98.897-.86 2.202-1.297 3.879-1.297s2.985.437 3.879 1.3c.928.898 1.398 2.236 1.398 3.98a7.44 7.44 0 01-.219 1.873h.216c.396 0 .699-.101.9-.3.202-.198.307-.514.307-.927v-.007l.01-.656c0-4.34-2.202-6.54-6.545-6.54-3.896 0-6.074 1.78-6.477 5.29a.336.336 0 01-.666-.077c.222-1.957.968-3.456 2.215-4.447C7.766.484 9.424 0 11.494 0zm3.383 9.775a.63.63 0 01-.15.245c-.137.138-.339.205-.588.205-.248 0-.45-.067-.588-.205-.127-.128-.198-.32-.198-.575 0-.534.313-.783.79-.783.36 0 .624.141.73.44l1.036.002c.162-.545.244-1.17.244-1.874 0-1.556-.403-2.733-1.193-3.496-.763-.739-1.913-1.112-3.412-1.112-1.5 0-2.645.373-3.412 1.112-.793.763-1.193 1.94-1.193 3.496 0 1.557.403 2.733 1.193 3.496.767.74 1.913 1.113 3.412 1.113 1.5 0 2.645-.373 3.412-1.113.277-.267.506-.584.687-.95z" fill="#5CB615" fill-rule="nonzero"/></svg>
